/* XPM */
static const char *icon_xpm[] = {
"32 32 5 1",
"  c None",
"K c #000000",
"W c #FFFFFF",
"G c #00FF00",
"B c #333344",
"                                ",
"                                ",
"             KKKKKK             ",
"           KWWWWWWWWK           ",
"         KWWWWWWWWWWWWK         ",
"         KWKWWWWWWWWKWK         ",
"         KWKWWWWWWWWKWK         ",
"         KWWWWWWWWWWWWK         ",
"         KWWWWKKKKWWWWK         ",
"         KWWKKKKKKKKWWK         ",
"           KWWWWWWWWK           ",
"         KKKKKGGGGKKKKK         ",
"       KBBBBBKGGGGKBBBBBK       ",
"       KBBBBBKGGGGKBBBBBK       ",
"     KKKKKKKKKKKKKKKKKKKKKK     ",
"     KBBBBBBBBBBBBBBBBBBBBK     ",
"     KBKKKKKKKKKKKKKKKKKKKBK    ",
"     KBKGG  GG    GG  GGKKBK    ",
"     KBKGG  GG    GG  GGKKBK    ",
"     KBKKKKKKKKKKKKKKKKKKKBK    ",
"     KBBBBBBBBBBBBBBBBBBBBK     ",
"     KBBBBBBBBBBBBBBBBBBBBK     ",
"     KKKKKKKKKBBBBKKKKKKKKK     ",
"              KBBK              ",
"              KGGK              ",
"              KGGK              ",
"              KGGK              ",
"              KGGK              ",
"              KGGK              ",
"              KGGK              ",
"                                ",
"                                "
};
